build/redact/RightDoubleOutline.svg

<svg xmlns="http://www.w3.org/2000/svg" fill="none" viewBox="0 0 24 24" focusable="false"><path d="M0 0H24V24H0z"/><path fill="#74767B" fill-rule="evenodd" d="M18.8088 12.7146C19.0637 12.458 19.0637 12.042 18.8088 11.7854L12.259 5.19245C12.0041 4.93585 11.5908 4.93585 11.3359 5.19245C11.0809 5.44905 11.0809 5.86508 11.3359 6.12168L17.4241 12.25L11.3359 18.3783C11.0809 18.6349 11.0809 19.051 11.3359 19.3076C11.5908 19.5641 12.0041 19.5641 12.259 19.3076L18.8088 12.7146ZM6.11434 19.3076L12.6641 12.7146C12.9191 12.458 12.9191 12.042 12.6641 11.7854L6.11434 5.19245C5.85942 4.93585 5.44611 4.93585 5.19119 5.19245C4.93627 5.44905 4.93627 5.86508 5.19119 6.12168L11.2794 12.25L5.19119 18.3783C4.93627 18.6349 4.93627 19.051 5.19119 19.3076C5.44611 19.5641 5.85942 19.5641 6.11434 19.3076Z"/></svg>

<svg xmlns="http://www.w3.org/2000/svg" fill="none" viewBox="0 0 24 24" focusable="false"><path fill="#74767B" fill-rule="evenodd" d="M18.8 12.71c.26-.26.26-.67 0-.93l-6.55-6.59a.64.64 0 0 0-.92 0 .67.67 0 0 0 0 .93l6.09 6.13-6.09 6.12a.67.67 0 0 0 0 .93c.26.26.67.26.92 0zM6.11 19.3l6.55-6.59a.67.67 0 0 0 0-.93L6.11 5.19a.64.64 0 0 0-.92 0c-.26.25-.26.67 0 .93l6.08 6.13-6.08 6.12c-.26.26-.26.68 0 .93.25.26.66.26.92 0"/></svg>
